X:1
T:Mariage D'amour(梦中的婚礼)
T:Mariage D'amour(梦中的婚礼)
T: Paul de SENNEVILLE Olivier Toussaint
C:Paul de SENNEVILLE and Olivier Toussaint
%%score ( 1 2 )
L:1/8
Q:1/4=80
M:4/4
K:G
V:1 treble-8 nm="古典吉他" snm="Guit."
V:2 treble-8 
V:1
 z4 z4 e/ |S e/f/f/g/ g/f/f/e/ e/B/B/G/ G/E/E/d/ ||[M:3/4] d/c/c/B/ c/d/(c c) z | %3
[M:7/8] z/ c/c/d/d/e/ e/f/f/d/ d/A/A/c/ ||[M:6/8] c/B/B/A/B/c/ !arpeggio!!fermata![B,^Dcd]2 z || %5
[M:12/8] BE/G/B/A/ BE/G/B/A/ BE/G/c/B/ cE/G/c/B/ ||[M:9/8] cc/B/c/^c/ dd/e/d/e/ B2 z | %7
[M:12/8] be/g/b/a/ be/g/b/a/ be/g/c'/b/ c'e/g/c'/b/ ||[M:9/8] c'c'/b/c'/^c'/ d'd'/e'/d'/e'/ b2 z | %9
[M:12/8] g>BB/c/ c>Af/e/ f>AA/B/ BG/G/e/c/ ||[M:9/8] e>GG/A/ A>FB/A/ B3 | %11
[M:12/8] g>gg/a/ a>gf/e/ d>de/d/ B2 z | gg/g/g/a/ a>gf/e/ d>de/d/ e3 | %13
 gg/g/g/a/ a>gf/e/ d>de/d/ B3 |[M:9/8] gg/g/g/a/ a>gf/e/ d>de/d/ ||[M:6/8] e4 z2 | %16
[M:12/8] BE/G/B/A/ BE/G/B/A/ BE/G/c/B/ cE/G/c/B/ |[M:9/8] cc/B/c/^c/ dd/e/d/e/ B2 z | %18
[M:12/8] be/g/b/a/ be/g/b/a/ be/g/c'/b/ c'e/g/c'/b/ |[M:9/8] c'c'/b/c'/^c'/ d'd'/e'/d'/e'/ b2 z | %20
[M:12/8] gg/g/g/a/ a>gf/e/ d>de/d/ B3 | gg/g/g/a/ a>gf/e/ d>de/d/ e3 | %22
 gg/g/g/a/ a>gf/e/ d>de/d/ B3 |[M:9/8] gg/g/g/a/ a>gf/e/ d>de/d/ || %24
[M:6/8] [GBe-]3 e2 z/ e/!D.C.! |][M:12/8]O gg/g/g/a/ a>gf/e/ d>de/d/ e3 | %26
 gg/g/g/a/ a>gf/e/ d>de/d/ B3 |[M:9/8] gg/g/g/a/ a>gf/e/ d>de/d/ | e4 z4 z |] %29
V:2
 !0!E,!1!B,!0!GB, GB,GB, z/ | E,B,GB, GB,GB, ||[M:3/4] A,E AE AE |[M:7/8] DAD A D2 F, || %4
[M:6/8] G,2 D2 !fermata!b2 ||[M:12/8] E,B,E E,B,E E,B,E A,3 ||[M:9/8] A,EA DAF G,G[F,F] | %7
[M:12/8] E,Be E,Be E,Be A,ce ||[M:9/8] A,ce Dda G,G[F,F] |[M:12/8] E,B,E A,E-E DF,-F, G,DF, || %10
[M:9/8] E,B,-B, F,C-C B,C^D |[M:12/8] E,B,G A,E[Ac] DAF G,G[F,F] | E,B,G A,E[Ac] DAF E,B,[EGB] | %13
 E,B,G A,E[Ac] DAF G,G[F,F] |[M:9/8] E,B,G A,E[Ac] DAF ||[M:6/8] E,B,E GB!fermata![be'] | %16
[M:12/8] E,B,E E,B,E E,B,E A,3/2 z/ z |[M:9/8] A,EA DAF G,G[F,F] |[M:12/8] E,Be E,Be E,Be A,ce | %19
[M:9/8] A,ce Dda G,G[F,F] |[M:12/8] E,B,G A,E[Ac] DAF G,G[F,F] | E,B,G A,E[Ac] DAF E,B,[EGB] | %22
 E,B,G A,E[Ac] DAF G,G[F,F] |[M:9/8] E,B,G A,E[Ac] DAF ||[M:6/8] E,B,G B,GB, |] %25
[M:12/8] E,B,G A,E[Ac] DAF E,B,[EGB] | E,B,G A,E[Ac] DAF G,G[F,F] |[M:9/8] E,B,G A,E[Ac] DAF | %28
 E,B,E GB[gbe']- [gbe']3 |] %29

